client/src/components/user/common/social media/instagram.svg

<svg xmlns="http://www.w3.org/2000/svg" width="26" height="26" viewBox="0 0 26 26">
    <g fill="none" fill-rule="evenodd">
        <circle cx="13" cy="13" r="13" fill="#247F65"/>
        <path fill="#FFF" d="M13 7.671c1.736 0 1.941.007 2.627.038.633.029.977.135 1.207.224.303.118.52.259.747.486.227.228.368.444.486.747.09.23.195.574.224 1.207.031.686.038.891.038 2.627 0 1.736-.007 1.941-.038 2.627-.029.633-.135.977-.224 1.207-.118.303-.259.52-.486.747a2.014 2.014 0 0 1-.747.486c-.23.09-.574.195-1.207.224-.686.031-.891.038-2.627.038-1.736 0-1.941-.007-2.627-.038-.633-.029-.977-.135-1.207-.224a2.014 2.014 0 0 1-.747-.486 2.014 2.014 0 0 1-.486-.747c-.09-.23-.195-.574-.224-1.207-.031-.686-.038-.891-.038-2.627 0-1.736.007-1.941.038-2.627.029-.633.135-.977.224-1.207.118-.303.259-.52.486-.747.228-.227.444-.368.747-.486.23-.09.574-.195 1.207-.224.686-.031.891-.038 2.627-.038M13 6.5c1.765 0 1.987.007 2.68.04.692.03 1.164.14 1.578.301.427.166.79.389 1.151.75s.584.724.75 1.151c.16.414.27.886.302 1.578.032.693.039.915.039 2.68 0 1.765-.007 1.987-.04 2.68-.03.692-.14 1.164-.301 1.578-.166.427-.389.79-.75 1.151a3.186 3.186 0 0 1-1.151.75c-.414.16-.886.27-1.578.302-.693.032-.915.039-2.68.039-1.765 0-1.987-.007-2.68-.04-.692-.03-1.164-.14-1.578-.301a3.186 3.186 0 0 1-1.151-.75 3.186 3.186 0 0 1-.75-1.151c-.16-.414-.27-.886-.302-1.578-.032-.693-.039-.915-.039-2.68 0-1.765.007-1.987.04-2.68.03-.692.14-1.164.301-1.578.166-.427.389-.79.75-1.151a3.186 3.186 0 0 1 1.151-.75c.414-.16.886-.27 1.578-.302.693-.032.915-.039 2.68-.039zm.013 3.173a3.34 3.34 0 1 0 0 6.68 3.34 3.34 0 0 0 0-6.68zm0 5.508a2.168 2.168 0 1 1 0-4.336 2.168 2.168 0 0 1 0 4.336zm4.217-5.663a.774.774 0 1 0-1.547 0 .774.774 0 0 0 1.547 0z"/>
    </g>
</svg>

<?xml version="1.0" encoding="UTF-8" standalone="no"?>
<!DOCTYPE svg PUBLIC "-//W3C//DTD SVG 1.1//EN" "http://www.w3.org/Graphics/SVG/1.1/DTD/svg11.dtd">
<svg width="100%" height="100%" viewBox="0 0 60 60" version="1.1" xmlns="http://www.w3.org/2000/svg" xmlns:xlink="http://www.w3.org/1999/xlink" xml:space="preserve" xmlns:serif="http://www.serif.com/" style="fill-rule:evenodd;clip-rule:evenodd;stroke-linejoin:round;stroke-miterlimit:1.41421;">
    <g transform="matrix(0.148613,0,0,0.148613,0.277345,0.277345)">
        <circle cx="200" cy="200" r="200" style="fill:rgb(28,120,120);"/>
        <g transform="matrix(15,0,0,15,193.24,215.732)">
            <g transform="matrix(1,0,0,1,-3.5,-7)">
                <path d="M4.777,13.682L1.895,13.682L1.895,6.886L0.455,6.886L0.455,4.544L1.895,4.544L1.895,3.138C1.895,1.228 2.708,0.091 5.018,0.091L6.941,0.091L6.941,2.434L5.74,2.434C4.84,2.434 4.781,2.761 4.781,3.372L4.777,4.544L6.956,4.544L6.7,6.886L4.776,6.886L4.776,13.682L4.777,13.682Z" style="fill:white;"/>
            </g>
        </g>
    </g>
    <g transform="matrix(2.28636,0,0,2.28636,30,30)">
        <g transform="matrix(1,0,0,1,-13,-13)">
            <g>
                <rect x="0" y="0" width="26" height="26" style="fill:none;"/>
                <circle cx="13" cy="13" r="13" style="fill:rgb(28,120,120);"/>
                <path d="M18.038,9.954C18.564,9.622 18.968,9.096 19.157,8.469C18.661,8.781 18.113,9.001 17.54,9.121C17.072,8.585 16.394,8.275 15.682,8.273C14.276,8.273 13.137,9.475 13.137,10.958C13.137,11.168 13.158,11.373 13.202,11.569C11.087,11.457 9.212,10.389 7.955,8.764C7.735,9.162 7.61,9.622 7.61,10.114C7.61,11.045 8.06,11.867 8.743,12.35C8.336,12.335 7.94,12.22 7.589,12.014L7.589,12.047C7.589,13.348 8.466,14.434 9.632,14.679C9.414,14.743 9.188,14.775 8.961,14.774C8.797,14.774 8.636,14.758 8.482,14.726C8.805,15.793 9.746,16.57 10.86,16.591C9.812,17.467 8.446,17.869 7.09,17.703C8.24,18.487 9.601,18.908 10.993,18.909C15.677,18.909 18.236,14.818 18.236,11.269C18.237,11.153 18.235,11.038 18.23,10.922C18.727,10.543 19.16,10.07 19.5,9.532C19.038,9.748 18.544,9.891 18.038,9.954Z" style="fill:white;"/>
            </g>
        </g>
    </g>
    <g transform="matrix(2.28636,0,0,2.28636,30,30)">
        <g transform="matrix(1,0,0,1,-13,-13)">
            <g>
                <circle cx="13" cy="13" r="13" style="fill:rgb(28,120,120);"/>
                <path d="M13,7.671C14.736,7.671 14.941,7.678 15.627,7.709C16.26,7.738 16.604,7.844 16.834,7.933C17.137,8.051 17.354,8.192 17.581,8.419C17.808,8.647 17.949,8.863 18.067,9.166C18.157,9.396 18.262,9.74 18.291,10.373C18.322,11.059 18.329,11.264 18.329,13C18.329,14.736 18.322,14.941 18.291,15.627C18.262,16.26 18.156,16.604 18.067,16.834C17.949,17.137 17.808,17.354 17.581,17.581C17.371,17.797 17.116,17.963 16.834,18.067C16.604,18.157 16.26,18.262 15.627,18.291C14.941,18.322 14.736,18.329 13,18.329C11.264,18.329 11.059,18.322 10.373,18.291C9.74,18.262 9.396,18.156 9.166,18.067C8.884,17.963 8.629,17.797 8.419,17.581C8.203,17.371 8.037,17.116 7.933,16.834C7.843,16.604 7.738,16.26 7.709,15.627C7.678,14.941 7.671,14.736 7.671,13C7.671,11.264 7.678,11.059 7.709,10.373C7.738,9.74 7.844,9.396 7.933,9.166C8.051,8.863 8.192,8.646 8.419,8.419C8.647,8.192 8.863,8.051 9.166,7.933C9.396,7.843 9.74,7.738 10.373,7.709C11.059,7.678 11.264,7.671 13,7.671M13,6.5C14.765,6.5 14.987,6.507 15.68,6.54C16.372,6.57 16.844,6.68 17.258,6.841C17.685,7.007 18.048,7.23 18.409,7.591C18.77,7.952 18.993,8.315 19.159,8.742C19.319,9.156 19.429,9.628 19.461,10.32C19.493,11.013 19.5,11.235 19.5,13C19.5,14.765 19.493,14.987 19.46,15.68C19.43,16.372 19.32,16.844 19.159,17.258C18.993,17.685 18.77,18.048 18.409,18.409C18.084,18.74 17.692,18.996 17.258,19.159C16.844,19.319 16.372,19.429 15.68,19.461C14.987,19.493 14.765,19.5 13,19.5C11.235,19.5 11.013,19.493 10.32,19.46C9.628,19.43 9.156,19.32 8.742,19.159C8.308,18.996 7.916,18.74 7.591,18.409C7.26,18.084 7.004,17.692 6.841,17.258C6.681,16.844 6.571,16.372 6.539,15.68C6.507,14.987 6.5,14.765 6.5,13C6.5,11.235 6.507,11.013 6.54,10.32C6.57,9.628 6.68,9.156 6.841,8.742C7.007,8.315 7.23,7.952 7.591,7.591C7.916,7.26 8.308,7.004 8.742,6.841C9.156,6.681 9.628,6.571 10.32,6.539C11.013,6.507 11.235,6.5 13,6.5ZM13.013,9.673C11.181,9.673 9.673,11.181 9.673,13.013C9.673,14.845 11.181,16.353 13.013,16.353C14.845,16.353 16.353,14.845 16.353,13.013C16.353,11.181 14.845,9.673 13.013,9.673ZM13.013,15.181C11.824,15.181 10.845,14.202 10.845,13.013C10.845,11.824 11.824,10.845 13.013,10.845C14.202,10.845 15.181,11.824 15.181,13.013C15.181,14.202 14.202,15.181 13.013,15.181ZM17.23,9.518C17.23,9.509 17.231,9.499 17.231,9.49C17.231,9.066 16.881,8.716 16.456,8.716C16.032,8.716 15.682,9.066 15.682,9.49C15.682,9.499 15.683,9.509 15.683,9.518C15.698,9.932 16.042,10.264 16.456,10.264C16.871,10.264 17.215,9.932 17.23,9.518Z" style="fill:white;"/>
            </g>
        </g>
    </g>
</svg>
